X:1
T:Living Where the Healing Waters Flow
T:Living Where the Healing Waters Flow
T:Peter Philip Bilhorn
T:Ina Duley Ogdon, 1901
T:Public Domain Courtesy of the Cyber Hymnal™
T:Public Domain Courtesy of the Cyber Hymnal™
C:Peter Philip Bilhorn
Z:Public Domain
Z:Courtesy of the Cyber Hymnal™
%%score ( 1 2 ) ( 3 4 )
L:1/8
Q:1/4=110
M:4/4
K:Ab
V:1 treble 
V:2 treble 
V:3 bass 
V:4 bass 
V:1
 [CE]2 | [CE][CA][CA][DB] [Ec][CA][CA][EG] | [DF]<[FA] [FA]>[DF] [CE]3 [CE] | %3
w: 1.~I’ve|cast my heav- y bur- dens down on|Ca- naan’s hap- py shore, I’m|
w: 2.~With|Is- rael’s trust- ing child- ren I’m re-|joic- ing on my way, I’m|
w: 3.~My|hun- gering soul is sat- is- fied with|man- na from a- bove, I’m|
w: 4.~I’m|sing- ing “Hal- le- lu- jah,” safe- ly|an- chored in my soul, I’m|
 [CE]<[CA] [CA][DB] [Ec]<[Ec] [DB]<[CA] | [DB]6 z [DE] x | [CE][CA][CA][DB] [Ec][CA][CA][EG] | %6
w: liv- ing where the heal- ing wa- ters|flow; I’ll|wan- der in the wil- der- ness of|
w: liv- ing where the heal- ing wa- ters|flow; The|cloud- y fier- y pil- lar is my|
w: liv- ing where the heal- ing wa- ters|flow; No|more I thirst, the rock I’ve found, that|
w: liv- ing where the heal- ing wa- ters|flow; I’m|rest- ing on His prom- is- es; the|
 [DF]<[FA] [FA]>[DF] [CE]3 [CE] | [CE]<[CA] [CA][DB] [Ec]<[Ec] [DB]<[DB] | A4 C2 z2 || %9
w: doubt and sin no more; I’m|liv- ing where the heal- ing wa- ters|flow. *|
w: guid- ing light to- day; I’m|liv- ing where the heal- ing wa- ters|flow. *|
w: fount of end- less love; I’m|liv- ing where the heal- ing wa- ters|flow. Liv-|
w: blood has made me whole; I’m|liv- ing where the heal- ing wa- ters|flow. *|
"^Refrain" [Ec]<[Ee] [Ee]>[Ec] [CA]3 [EG] | [DF]<[FA] [FA]>[DF] [CE]3 [CE] | %11
w: ||
w: ||
w: * ing on the shore, I’m|liv- ing on the shore, I’m|
w: ||
 [CE]<[CA] [CA][DB] [Ec]<[Ec] [EB]<[=DA] | [DB]6 z2 | [Ec]<[Ee] [Ee]>[Ec] [CA]3 [EG] | %14
w: |||
w: |||
w: liv- ing where the heal- ing wa- ters|flow;|Liv- ing on the shore, I’m|
w: |||
 [DF]<[FA] [FA]>[DF] [CE]3 [CE] | [CE]<[CA] [CA][DB] [Ec]<[Ec] [DB]<[DB] | A6 |] %17
w: |||
w: |||
w: liv- ing on the shore, I’m|liv- ing where the heal- ing wa- ters|flow.|
w: |||
V:2
 x2 | x8 | x8 | x8 | x9 | x8 | x8 | x8 | C2 DD x4 || x8 | x8 | x8 | x8 | x8 | x8 | x8 | %16
 (C2 DD C2) |] %17
V:3
 [A,,A,]2 | [A,,A,][A,,E,][A,,E,][A,,E,] [A,,A,][A,,E,][A,,E,][C,A,] | %2
 [D,A,]<[D,D] [D,D]>[D,A,] [A,,A,]3 [A,,A,] | %3
 [A,,A,]<[A,,E,] [A,,E,][A,,E,] [A,,A,]<[A,,A,] [E,G,]<[E,A,] | G,6 ([D,E,] z) [B,,G,] | %5
 [A,,A,][A,,E,][A,,E,][A,,E,] [A,,A,][A,,E,][A,,E,][C,A,] | %6
 [D,A,]<[D,D] [D,D]>[D,A,] [A,,A,]3 [A,,A,] | [A,,A,]<[A,,E,] [A,,E,][E,G,] A,<A, [E,G,]<E, | %8
 (E,2 F,_F, E,2) z2 || A,<[A,C] [A,C]>A, [A,,A,]3 [C,A,] | %10
 [D,A,]<[D,D] [D,D]>[D,A,] [A,,A,]3 [A,,A,] | %11
 [A,,A,]<[A,,E,] [A,,E,][A,,E,] [A,,A,]<[A,,A,] [B,,G,]<[B,,F,] | [E,G,]6 z2 | %13
 A,<[A,C] [A,C]>A, [A,,A,]3 [C,A,] | [D,A,]<[D,D] [D,D]>[D,A,] [A,,A,]3 [A,,A,] | %15
 [A,,A,]<[A,,E,] [A,,E,][E,G,] A,<A, [E,G,]<E, | E,2 F,_F, E,2 |] %17
V:4
 x2 | x8 | x8 | x8 | (E,-E,F,E, _D,) x4 | x8 | x8 | x4 A,<A, E,3/2 x/ | A,,6 x2 || %9
 A,/ x5/2 A,/ x9/2 | x8 | x8 | x8 | A,/ x5/2 A,/ x9/2 | x8 | x4 A,<A, E,3/2 x/ | A,,6 |] %17

